img/icons/project/2.svg

<svg width="54" height="55" viewBox="0 0 54 55" fill="none" xmlns="http://www.w3.org/2000/svg">
<path d="M52.3666 0H1.63343C0.731324 0 0 0.727963 0 1.62593V36.3446C0 37.2426 0.731324 37.9705 1.63343 37.9705H29.6401L29.0723 37.1104C28.8643 36.7954 28.7544 36.4296 28.7544 36.0524V26.3883C28.7544 23.6494 30.5128 21.2259 33.1298 20.358L33.1629 20.3474L34.7523 19.862C34.9363 19.8055 35.1273 19.777 35.3197 19.777C35.8133 19.777 36.2767 19.9668 36.6266 20.2861L36.9597 19.9154C34.4472 18.852 32.6809 16.3706 32.6809 13.4861C32.6809 9.63592 35.8278 6.50352 39.6957 6.50352C43.5637 6.50352 46.7106 9.63592 46.7106 13.4861C46.7106 16.37 44.9449 18.8509 42.4333 19.9148C42.5554 20.0255 42.6674 20.1478 42.7652 20.2826C43.2558 19.8359 43.9633 19.6552 44.6409 19.8622L46.2782 20.3631C48.8861 21.2193 50.6371 23.6287 50.6371 26.363V36.0522C50.6371 36.4294 50.5272 36.7952 50.3192 37.1104L49.7514 37.9704H52.3666C53.2687 37.9704 54 37.2424 54 36.3444V1.62593C54 0.727963 53.2687 0 52.3666 0V0ZM28.6334 17.4072C28.6334 18.3052 27.9021 19.0331 27 19.0331C26.0979 19.0331 25.3666 18.3052 25.3666 17.4072V15.0202L18.5465 21.8089C17.9084 22.4437 16.8744 22.4437 16.2363 21.8089L14.2205 19.8022L9.03392 24.9652C8.71486 25.2826 8.29702 25.4413 7.8788 25.4413C7.46077 25.4413 7.04273 25.2826 6.72368 24.9652C6.08574 24.3302 6.08574 23.3005 6.72368 22.6655L13.0656 16.353C13.7037 15.7181 14.7377 15.7181 15.3758 16.353L17.3916 18.3596L23.0565 12.7206H20.6584C19.7563 12.7206 19.025 11.9926 19.025 11.0946C19.025 10.1967 19.7563 9.4687 20.6584 9.4687H27C27.9021 9.4687 28.6334 10.1967 28.6334 11.0946V17.4072Z" fill="#343434"/>
<path d="M44.7886 13.4866C44.7886 10.6912 42.5038 8.41699 39.6956 8.41699C36.8873 8.41699 34.6025 10.6912 34.6025 13.4866C34.6025 16.282 36.8873 18.5562 39.6956 18.5562C42.5037 18.5562 44.7886 16.282 44.7886 13.4866Z" fill="#343434"/>
<path d="M45.6678 22.1772L45.6506 22.1715L44.0764 21.6909L40.7144 30.835C40.56 31.2567 40.1742 31.5324 39.7258 31.5442C39.2477 31.5568 38.8237 31.2352 38.66 30.788L35.3323 21.6996L33.7266 22.1763C31.9064 22.7802 30.6763 24.4744 30.6763 26.3885V36.0526L34.2475 41.4663V54.5639C34.2475 54.8039 34.4447 55.0002 34.6858 55.0002H44.7059C44.947 55.0002 45.1442 54.8039 45.1442 54.5639V41.4663L48.7134 36.0598L48.7155 26.3631C48.7155 24.4537 47.4908 22.7717 45.6678 22.1772Z" fill="#343434"/>
<path d="M39.1071 23.8987L38.7233 27.1219L39.4791 29.1233C39.5528 29.3246 39.8387 29.3246 39.9126 29.1233L40.6685 27.1219L40.2847 23.8987L41.1046 22.6683C41.2575 22.4048 41.2262 22.0674 41.0108 21.8341C40.8716 21.6833 40.6685 21.6074 40.4627 21.6074H38.9288C38.7233 21.6074 38.5199 21.6833 38.3808 21.8341C38.1655 22.0676 38.1343 22.4048 38.287 22.6683L39.1071 23.8987Z" fill="#343434"/>
</svg>

<svg width="54" height="55" fill="none" xmlns="http://www.w3.org/2000/svg"><path d="M52.367 0H1.633A1.63 1.63 0 0 0 0 1.626v34.719a1.63 1.63 0 0 0 1.633 1.626H29.64l-.568-.86a1.915 1.915 0 0 1-.318-1.059v-9.664a6.355 6.355 0 0 1 4.376-6.03l.033-.01 1.59-.486a1.932 1.932 0 0 1 1.874.424l.333-.37c-2.513-1.064-4.28-3.545-4.28-6.43 0-3.85 3.148-6.982 7.016-6.982s7.015 3.132 7.015 6.982c0 2.884-1.766 5.365-4.278 6.429a2.4 2.4 0 0 1 .332.368 1.941 1.941 0 0 1 1.876-.42l1.637.5a6.307 6.307 0 0 1 4.36 6v9.69c0 .376-.11.742-.319 1.057l-.568.86h2.616A1.63 1.63 0 0 0 54 36.344V1.626A1.63 1.63 0 0 0 52.367 0zM28.633 17.407A1.63 1.63 0 0 1 27 19.033a1.63 1.63 0 0 1-1.633-1.626V15.02l-6.82 6.789a1.64 1.64 0 0 1-2.31 0l-2.016-2.007-5.187 5.163c-.32.318-.737.476-1.155.476a1.63 1.63 0 0 1-1.155-.476 1.62 1.62 0 0 1 0-2.3l6.342-6.312a1.64 1.64 0 0 1 2.31 0l2.016 2.007 5.665-5.64h-2.399a1.63 1.63 0 0 1-1.633-1.625 1.63 1.63 0 0 1 1.633-1.626H27a1.63 1.63 0 0 1 1.633 1.626v6.312z" fill="#343434"/><path d="M44.789 13.487c0-2.796-2.285-5.07-5.093-5.07-2.809 0-5.093 2.274-5.093 5.07 0 2.795 2.284 5.07 5.093 5.07 2.808 0 5.093-2.275 5.093-5.07zm.879 8.69l-.017-.005-1.575-.481-3.362 9.144c-.154.422-.54.697-.988.71-.478.012-.902-.31-1.066-.757L35.332 21.7l-1.605.476a4.44 4.44 0 0 0-3.05 4.213v9.664l3.57 5.413v13.098c0 .24.198.436.439.436h10.02a.439.439 0 0 0 .438-.436V41.466l3.57-5.406.002-9.697a4.397 4.397 0 0 0-3.048-4.186z" fill="#343434"/><path d="M39.107 23.899l-.384 3.223.756 2.001c.074.202.36.202.434 0l.756-2.001-.384-3.223.82-1.23a.705.705 0 0 0-.094-.835.742.742 0 0 0-.548-.227h-1.534a.706.706 0 0 0-.642 1.06l.82 1.232z" fill="#343434"/></svg>
